X: 1
T: Rattlin' Roarin' Willie
C:
R: slip-jig
Z: 2014 John Chambers <jc:trillian.mit.edu>
S: page in Concord Slow Scottish Session collection
N: "Burns Tunes  SRSNH  1/93  5.14" at top
Z: Transcribed by Barbara McOwen
N: Usually played without the "extra" measure at the end.
M: 6/8
L: 1/8
K: A
e2d |\
"A"c2A A2A cde | "G"=g2d B=GB d2e | "A"c2A A2A cde | "A"a^ga c2d e2e ||
"A"aga ecA def | "G"=g2d B=GB d2d | "A"e2e f2e fae | "A"cAc "G"B=GB "A"A3- | A3 z3 |]
